X:175
T:Anna's Vals
T:Polska
A:Dalarna, Mora
C:e. Ljuder Anders Ersson
L:1/8
M:3/4
O:Sweden
R:Waltz
R:Polska
Z:Carol Turner
%%TUNEURL: http://www.leeds.ac.uk/music/Info/RRTuneBk/gettune/00000c9a.html
%%ID:00000c9a
K:G
A2 cB A2 | c2 BA E2 | E2 (AB) cd   | (ef) ed ^c2 | \
A2 cB A2 | c2 BA E2 | (ec) (Ac) BG | A2 A4    ::
( ea)( af) ga | ba g2 e2 | (fe) d2 cd   | (ed) BG A2 | \
(ea) (af) ga  | ba g2 e2 | (fe) (dc) dB | G2 A4:|
